Newaita/actions/22/tool-tweak.svg

<svg height="22" viewBox="0 0 22 22" width="22" xmlns="http://www.w3.org/2000/svg"><path d="m15.011719 2.90625c-.105469 0-.210938.015625-.3125.050781-2.445313.882813-5.335938 2.148438-7.675781 3.703125-2.34375 1.554688-4.289063 3.425782-4.289063 5.792969v1.363281h-.003906v4.546875c0 .503907.402343.910157.90625.910157h14.554687c.503906 0 .910156-.40625.910156-.910157v-4.546875h-.003906v-1.363281c0-.960937-.613281-1.644531-1.183594-2.15625-.574218-.511719-1.203124-.949219-1.695312-1.441406-.496094-.496094-.847656-1-.972656-1.6875-.128906-.6875-.042969-1.617188.585937-2.976563.128907-.28125.105469-.609375-.0625-.867187-.164062-.261719-.449219-.417969-.757812-.417969zm-1.480469 2.445312c-.167969.789063-.1875 1.503907-.066406 2.148438.210937 1.136719.828125 1.992188 1.472656 2.636719.640625.640625 1.324219 1.113281 1.773438 1.511719.449218.402343.574218.625.574218.804687v1.363281h-.003906v3.183594c0 .25-.203125.453125-.453125.453125h-11.824219c-.253906 0-.457031-.203125-.457031-.453125v-3.183594h-.003906v-1.363281c0-1.277344 1.335937-2.859375 3.480469-4.28125 1.621093-1.078125 3.613281-2.046875 5.507812-2.820313zm0 0" fill="#424242"/></svg>

<svg xmlns="http://www.w3.org/2000/svg" xmlns:xlink="http://www.w3.org/1999/xlink" width="22px" height="22px" viewBox="0 0 22 22" version="1.1">
<g id="surface1">
     <defs>
  <style id="current-color-scheme" type="text/css">
   .ColorScheme-Text { color:#424242; } .ColorScheme-Highlight { color:#eeeeee; }
  </style>
 </defs>
<path style="fill:currentColor" class="ColorScheme-Text" d="M 15.011719 2.90625 C 14.90625 2.90625 14.800781 2.921875 14.699219 2.957031 C 12.253906 3.839844 9.363281 5.105469 7.023438 6.660156 C 4.679688 8.214844 2.734375 10.085938 2.734375 12.453125 L 2.734375 13.816406 L 2.730469 13.816406 L 2.730469 18.363281 C 2.730469 18.867188 3.132812 19.273438 3.636719 19.273438 L 18.191406 19.273438 C 18.695312 19.273438 19.101562 18.867188 19.101562 18.363281 L 19.101562 13.816406 L 19.097656 13.816406 L 19.097656 12.453125 C 19.097656 11.492188 18.484375 10.808594 17.914062 10.296875 C 17.339844 9.785156 16.710938 9.347656 16.21875 8.855469 C 15.722656 8.359375 15.371094 7.855469 15.246094 7.167969 C 15.117188 6.480469 15.203125 5.550781 15.832031 4.191406 C 15.960938 3.910156 15.9375 3.582031 15.769531 3.324219 C 15.605469 3.0625 15.320312 2.90625 15.011719 2.90625 Z M 13.53125 5.351562 C 13.363281 6.140625 13.34375 6.855469 13.464844 7.5 C 13.675781 8.636719 14.292969 9.492188 14.9375 10.136719 C 15.578125 10.777344 16.261719 11.25 16.710938 11.648438 C 17.160156 12.050781 17.285156 12.273438 17.285156 12.453125 L 17.285156 13.816406 L 17.28125 13.816406 L 17.28125 17 C 17.28125 17.25 17.078125 17.453125 16.828125 17.453125 L 5.003906 17.453125 C 4.75 17.453125 4.546875 17.25 4.546875 17 L 4.546875 13.816406 L 4.542969 13.816406 L 4.542969 12.453125 C 4.542969 11.175781 5.878906 9.59375 8.023438 8.171875 C 9.644531 7.09375 11.636719 6.125 13.53125 5.351562 Z M 13.53125 5.351562 "/>
</g>
</svg>
